assets/jan3_logo_light.svg

<svg fill="none" height="77" viewBox="0 0 113 77" width="113" xmlns="http://www.w3.org/2000/svg"><g fill="#fff"><path d="m27.4986 19.0913v-5.0624h-22.3684v5.0624h8.3677v18.7863c0 2.26-1.8306 4.0906-4.09065 4.0906-2.26 0-4.0906-1.8306-4.0906-4.0906v-2.4804h-5.31665v1.9775c0 5.328 4.32225 9.6502 9.6502 9.6502 5.328 0 9.6502-4.3222 9.6502-9.6502v-18.2834z"/><path d="m43.1831 32.075h-9.1587l5.4805-12.9837h3.6782v-5.0624h-7.8592l-13.7577 32.5723h6.3223l3.9946-9.4638h11.3v9.4638h5.8025v-27.5099h-5.8025z"/><path d="m74.9246 40.567-10.1417-26.5381h-9.7067v32.5723h5.8025v-26.5607l10.1474 26.5607h9.7011v-32.5723h-5.8026z"/><path d="m98.4852 32.5101v-5.2037c-5.0794 0-9.1926-4.1132-9.1926-9.1925v-.0735h-5.3223c0 7.9948 6.4862 14.481 14.481 14.4753h.0339z"/><path d="m104.344 10.0344 5.085-2.5764v-7.458h-20.1365v5.0624h14.6055l-9.7748 4.7234v4.2432h4.3618c5.079 0 9.193 4.1132 9.193 9.1925v.1413c0 5.0793-4.114 9.1925-9.193 9.1925v5.2037h.0509c7.9891-.0057 14.4641-6.4862 14.4641-14.4753 0-5.9156-3.56-11.0062-8.656-13.2493z"/></g><path d="m109.429 41.4711h-20.1365v5.0624h20.1365z" fill="#f68c21"/><path d="m16.204 65.432h1.596l3.3 8.568h-1.608l-.804-2.268h-3.42l-.804 2.268h-1.548zm-.528 5.16h2.616l-1.284-3.684h-.036zm13.8839 3.372-.732.816-1.248-1.092c-.32.184-.652.316-.996.396s-.684.12-1.02.12c-.64 0-1.216-.116-1.728-.348-.504-.24-.932-.564-1.284-.972s-.624-.884-.816-1.428c-.184-.544-.276-1.124-.276-1.74 0-.608.092-1.184.276-1.728.192-.544.464-1.02.816-1.428s.78-.732 1.284-.972c.512-.24 1.088-.36 1.728-.36s1.212.12 1.716.36c.512.24.944.564 1.296.972s.62.884.804 1.428c.192.544.288 1.12.288 1.728 0 .296-.024.596-.072.9-.048.296-.12.588-.216.876s-.22.564-.372.828c-.152.256-.336.484-.552.684zm-3.9-1.944.72-.828 1.044.912c.272-.328.464-.7.576-1.116s.168-.84.168-1.272c0-.408-.052-.808-.156-1.2-.096-.392-.248-.74-.456-1.044-.208-.312-.48-.56-.816-.744-.328-.184-.72-.276-1.176-.276s-.852.092-1.188.276c-.328.184-.596.432-.804.744-.208.304-.364.652-.468 1.044-.096.392-.144.792-.144 1.2s.048.808.144 1.2c.104.392.26.744.468 1.056.208.304.476.548.804.732.336.184.732.276 1.188.276.16 0 .32-.016.48-.048.168-.032.328-.084.48-.156zm5.2772-6.588h1.5v4.992c0 .288.012.58.036.876.032.296.112.564.24.804.136.232.336.424.6.576.272.152.652.228 1.14.228s.864-.076 1.128-.228c.272-.152.472-.344.6-.576.136-.24.216-.508.24-.804.032-.296.048-.588.048-.876v-4.992h1.5v5.484c0 .552-.084 1.032-.252 1.44s-.408.752-.72 1.032c-.304.272-.672.476-1.104.612s-.912.204-1.44.204-1.008-.068-1.44-.204-.804-.34-1.116-.612c-.304-.28-.54-.624-.708-1.032s-.252-.888-.252-1.44zm11.0482 0h1.596l3.3 8.568h-1.608l-.804-2.268h-3.42l-.804 2.268h-1.5481zm-.528 5.16h2.616l-1.284-3.684h-.036zm9.4237-5.16h1.368v3.168h.024c.096-.152.212-.288.348-.408s.284-.22.444-.3c.168-.088.34-.152.516-.192.184-.048.364-.072.54-.072.488 0 .912.088 1.272.264.368.168.672.404.912.708.24.296.42.644.54 1.044s.18.828.18 1.284c0 .416-.056.82-.168 1.212-.104.392-.268.74-.492 1.044-.216.296-.492.536-.828.72-.336.176-.732.264-1.188.264-.208 0-.42-.016-.636-.048-.208-.024-.408-.076-.6-.156s-.368-.184-.528-.312c-.152-.128-.28-.296-.384-.504h-.024v.852h-1.296zm4.776 5.472c0-.28-.036-.552-.108-.816s-.18-.496-.324-.696c-.144-.208-.324-.372-.54-.492-.216-.128-.464-.192-.744-.192-.576 0-1.012.2-1.308.6-.288.4-.432.932-.432 1.596 0 .312.036.604.108.876.08.264.196.492.348.684s.332.344.54.456c.216.112.464.168.744.168.312 0 .576-.064.792-.192s.392-.292.528-.492c.144-.208.244-.44.3-.696.064-.264.096-.532.096-.804zm1.8399-3.108h1.5l1.62 4.632h.024l1.572-4.632h1.428l-2.412 6.54c-.112.28-.224.548-.336.804-.104.256-.236.48-.396.672-.152.2-.344.356-.576.468-.232.12-.528.18-.888.18-.32 0-.636-.024-.948-.072v-1.152c.112.016.22.032.324.048.104.024.212.036.324.036.16 0 .292-.02.396-.06s.188-.1.252-.18c.072-.072.132-.16.18-.264s.092-.224.132-.36l.156-.48zm15.0585 3.444c0 .376-.032.74-.096 1.092s-.196.668-.396.948c-.192.28-.476.504-.852.672-.368.168-.86.252-1.476.252-.456 0-.844-.068-1.164-.204-.32-.144-.584-.336-.792-.576-.208-.248-.36-.54-.456-.876s-.144-.7-.144-1.092v-.456h1.5v.444c0 .488.08.868.24 1.14.168.264.48.396.936.396.24 0 .436-.036.588-.108.16-.072.284-.176.372-.312.096-.144.16-.32.192-.528s.048-.444.048-.708v-5.892h1.5zm4.1174-5.808h1.596l3.3 8.568h-1.608l-.804-2.268h-3.42l-.804 2.268h-1.5481zm-.528 5.16h2.616l-1.284-3.684h-.036zm6.1799-5.16h1.584l3.912 6.312h.024v-6.312h1.428v8.568h-1.584l-3.9-6.3h-.036v6.3h-1.428zm10.5441 3.648c.224.008.448-.008.672-.048s.424-.108.6-.204c.176-.104.316-.244.42-.42.112-.176.168-.392.168-.648 0-.36-.124-.648-.372-.864-.24-.216-.552-.324-.936-.324-.24 0-.448.048-.624.144s-.324.228-.444.396c-.112.16-.196.344-.252.552-.056.2-.08.408-.072.624h-1.368c.016-.408.092-.784.228-1.128.136-.352.32-.656.552-.912.24-.256.528-.456.864-.6s.716-.216 1.14-.216c.328 0 .648.048.96.144.32.096.604.236.852.42.256.184.46.42.612.708.152.28.228.604.228.972 0 .424-.096.796-.288 1.116-.192.312-.492.54-.9.684v.024c.48.096.852.336 1.116.72.272.376.408.836.408 1.38 0 .4-.08.76-.24 1.08-.16.312-.376.58-.648.804-.272.216-.588.384-.948.504s-.74.18-1.14.18c-.488 0-.916-.068-1.284-.204-.36-.144-.664-.344-.912-.6-.24-.256-.424-.564-.552-.924s-.196-.76-.204-1.2h1.368c-.016.512.108.94.372 1.284.272.336.676.504 1.212.504.456 0 .836-.128 1.14-.384.312-.264.468-.636.468-1.116 0-.328-.064-.588-.192-.78s-.296-.336-.504-.432c-.208-.104-.444-.168-.708-.192-.256-.024-.52-.032-.792-.024z" fill="#fff"/></svg>

<svg width="113" height="77" viewBox="0 0 113 77" fill="none" xmlns="http://www.w3.org/2000/svg">
<path d="M27.4986 19.0913V14.0289H5.1302V19.0913H13.4979V37.8776C13.4979 40.1376 11.6673 41.9682 9.40725 41.9682C7.14725 41.9682 5.31665 40.1376 5.31665 37.8776V35.3972H0V37.3747C0 42.7027 4.32225 47.0249 9.6502 47.0249C14.9782 47.0249 19.3004 42.7027 19.3004 37.3747V19.0913H27.4986Z" fill="white"/>
<path d="M43.1831 32.075H34.0244L39.5049 19.0913H43.1831V14.0289H35.3239L21.5662 46.6012H27.8885L31.8831 37.1374H43.1831V46.6012H48.9856V19.0913H43.1831V32.075Z" fill="white"/>
<path d="M74.9246 40.567L64.7829 14.0289H55.0762V46.6012H60.8787V20.0405L71.0261 46.6012H80.7272V14.0289H74.9246V40.567Z" fill="white"/>
<path d="M98.4852 32.5101V27.3064C93.4058 27.3064 89.2926 23.1932 89.2926 18.1139V18.0404H83.9703C83.9703 26.0352 90.4565 32.5214 98.4513 32.5157H98.4852V32.5101Z" fill="white"/>
<path d="M104.344 10.0344L109.429 7.458V0H89.2925V5.0624H103.898L94.1232 9.7858V14.029H98.485C103.564 14.029 107.678 18.1422 107.678 23.2215V23.3628C107.678 28.4421 103.564 32.5553 98.485 32.5553V37.759H98.5359C106.525 37.7533 113 31.2728 113 23.2837C113 17.3681 109.44 12.2775 104.344 10.0344Z" fill="white"/>
<path d="M109.429 41.4711H89.2925V46.5335H109.429V41.4711Z" fill="#F68C21"/>
<path d="M16.204 65.432H17.8L21.1 74H19.492L18.688 71.732H15.268L14.464 74H12.916L16.204 65.432ZM15.676 70.592H18.292L17.008 66.908H16.972L15.676 70.592ZM29.5599 73.964L28.8279 74.78L27.5799 73.688C27.2599 73.872 26.9279 74.004 26.5839 74.084C26.2399 74.164 25.8999 74.204 25.5639 74.204C24.9239 74.204 24.3479 74.088 23.8359 73.856C23.3319 73.616 22.9039 73.292 22.5519 72.884C22.1999 72.476 21.9279 72 21.7359 71.456C21.5519 70.912 21.4599 70.332 21.4599 69.716C21.4599 69.108 21.5519 68.532 21.7359 67.988C21.9279 67.444 22.1999 66.968 22.5519 66.56C22.9039 66.152 23.3319 65.828 23.8359 65.588C24.3479 65.348 24.9239 65.228 25.5639 65.228C26.2039 65.228 26.7759 65.348 27.2799 65.588C27.7919 65.828 28.2239 66.152 28.5759 66.56C28.9279 66.968 29.1959 67.444 29.3799 67.988C29.5719 68.532 29.6679 69.108 29.6679 69.716C29.6679 70.012 29.6439 70.312 29.5959 70.616C29.5479 70.912 29.4759 71.204 29.3799 71.492C29.2839 71.78 29.1599 72.056 29.0079 72.32C28.8559 72.576 28.6719 72.804 28.4559 73.004L29.5599 73.964ZM25.6599 72.02L26.3799 71.192L27.4239 72.104C27.6959 71.776 27.8879 71.404 27.9999 70.988C28.1119 70.572 28.1679 70.148 28.1679 69.716C28.1679 69.308 28.1159 68.908 28.0119 68.516C27.9159 68.124 27.7639 67.776 27.5559 67.472C27.3479 67.16 27.0759 66.912 26.7399 66.728C26.4119 66.544 26.0199 66.452 25.5639 66.452C25.1079 66.452 24.7119 66.544 24.3759 66.728C24.0479 66.912 23.7799 67.16 23.5719 67.472C23.3639 67.776 23.2079 68.124 23.1039 68.516C23.0079 68.908 22.9599 69.308 22.9599 69.716C22.9599 70.124 23.0079 70.524 23.1039 70.916C23.2079 71.308 23.3639 71.66 23.5719 71.972C23.7799 72.276 24.0479 72.52 24.3759 72.704C24.7119 72.888 25.1079 72.98 25.5639 72.98C25.7239 72.98 25.8839 72.964 26.0439 72.932C26.2119 72.9 26.3719 72.848 26.5239 72.776L25.6599 72.02ZM30.9371 65.432H32.4371V70.424C32.4371 70.712 32.4491 71.004 32.4731 71.3C32.5051 71.596 32.5851 71.864 32.7131 72.104C32.8491 72.336 33.0491 72.528 33.3131 72.68C33.5851 72.832 33.9651 72.908 34.4531 72.908C34.9411 72.908 35.3171 72.832 35.5811 72.68C35.8531 72.528 36.0531 72.336 36.1811 72.104C36.3171 71.864 36.3971 71.596 36.4211 71.3C36.4531 71.004 36.4691 70.712 36.4691 70.424V65.432H37.9691V70.916C37.9691 71.468 37.8851 71.948 37.7171 72.356C37.5491 72.764 37.3091 73.108 36.9971 73.388C36.6931 73.66 36.3251 73.864 35.8931 74C35.4611 74.136 34.9811 74.204 34.4531 74.204C33.9251 74.204 33.4451 74.136 33.0131 74C32.5811 73.864 32.2091 73.66 31.8971 73.388C31.5931 73.108 31.3571 72.764 31.1891 72.356C31.0211 71.948 30.9371 71.468 30.9371 70.916V65.432ZM41.9853 65.432H43.5813L46.8813 74H45.2733L44.4693 71.732H41.0493L40.2453 74H38.6972L41.9853 65.432ZM41.4573 70.592H44.0733L42.7893 66.908H42.7533L41.4573 70.592ZM50.881 65.432H52.249V68.6H52.273C52.369 68.448 52.485 68.312 52.621 68.192C52.757 68.072 52.905 67.972 53.065 67.892C53.233 67.804 53.405 67.74 53.581 67.7C53.765 67.652 53.945 67.628 54.121 67.628C54.609 67.628 55.033 67.716 55.393 67.892C55.761 68.06 56.065 68.296 56.305 68.6C56.545 68.896 56.725 69.244 56.845 69.644C56.965 70.044 57.025 70.472 57.025 70.928C57.025 71.344 56.969 71.748 56.857 72.14C56.753 72.532 56.589 72.88 56.365 73.184C56.149 73.48 55.873 73.72 55.537 73.904C55.201 74.08 54.805 74.168 54.349 74.168C54.141 74.168 53.929 74.152 53.713 74.12C53.505 74.096 53.305 74.044 53.113 73.964C52.921 73.884 52.745 73.78 52.585 73.652C52.433 73.524 52.305 73.356 52.201 73.148H52.177V74H50.881V65.432ZM55.657 70.904C55.657 70.624 55.621 70.352 55.549 70.088C55.477 69.824 55.369 69.592 55.225 69.392C55.081 69.184 54.901 69.02 54.685 68.9C54.469 68.772 54.221 68.708 53.941 68.708C53.365 68.708 52.929 68.908 52.633 69.308C52.345 69.708 52.201 70.24 52.201 70.904C52.201 71.216 52.237 71.508 52.309 71.78C52.389 72.044 52.505 72.272 52.657 72.464C52.809 72.656 52.989 72.808 53.197 72.92C53.413 73.032 53.661 73.088 53.941 73.088C54.253 73.088 54.517 73.024 54.733 72.896C54.949 72.768 55.125 72.604 55.261 72.404C55.405 72.196 55.505 71.964 55.561 71.708C55.625 71.444 55.657 71.176 55.657 70.904ZM57.4969 67.796H58.9969L60.6169 72.428H60.6409L62.2129 67.796H63.6409L61.2289 74.336C61.1169 74.616 61.0049 74.884 60.8929 75.14C60.7889 75.396 60.6569 75.62 60.4969 75.812C60.3449 76.012 60.1529 76.168 59.9209 76.28C59.6889 76.4 59.3929 76.46 59.0329 76.46C58.7129 76.46 58.3969 76.436 58.0849 76.388V75.236C58.1969 75.252 58.3049 75.268 58.4089 75.284C58.5129 75.308 58.6209 75.32 58.7329 75.32C58.8929 75.32 59.0249 75.3 59.1289 75.26C59.2329 75.22 59.3169 75.16 59.3809 75.08C59.4529 75.008 59.5129 74.92 59.5609 74.816C59.6089 74.712 59.6529 74.592 59.6929 74.456L59.8489 73.976L57.4969 67.796ZM72.5554 71.24C72.5554 71.616 72.5234 71.98 72.4594 72.332C72.3954 72.684 72.2634 73 72.0634 73.28C71.8714 73.56 71.5874 73.784 71.2114 73.952C70.8434 74.12 70.3514 74.204 69.7354 74.204C69.2794 74.204 68.8914 74.136 68.5714 74C68.2514 73.856 67.9874 73.664 67.7794 73.424C67.5714 73.176 67.4194 72.884 67.3234 72.548C67.2274 72.212 67.1794 71.848 67.1794 71.456V71H68.6794V71.444C68.6794 71.932 68.7594 72.312 68.9194 72.584C69.0874 72.848 69.3994 72.98 69.8554 72.98C70.0954 72.98 70.2914 72.944 70.4434 72.872C70.6034 72.8 70.7274 72.696 70.8154 72.56C70.9114 72.416 70.9754 72.24 71.0074 72.032C71.0394 71.824 71.0554 71.588 71.0554 71.324V65.432H72.5554V71.24ZM76.6728 65.432H78.2688L81.5688 74H79.9608L79.1568 71.732H75.7368L74.9328 74H73.3847L76.6728 65.432ZM76.1448 70.592H78.7608L77.4768 66.908H77.4408L76.1448 70.592ZM82.3247 65.432H83.9087L87.8207 71.744H87.8447V65.432H89.2727V74H87.6887L83.7887 67.7H83.7527V74H82.3247V65.432ZM92.8688 69.08C93.0928 69.088 93.3168 69.072 93.5408 69.032C93.7648 68.992 93.9648 68.924 94.1408 68.828C94.3168 68.724 94.4568 68.584 94.5608 68.408C94.6728 68.232 94.7288 68.016 94.7288 67.76C94.7288 67.4 94.6048 67.112 94.3568 66.896C94.1168 66.68 93.8048 66.572 93.4208 66.572C93.1808 66.572 92.9728 66.62 92.7968 66.716C92.6208 66.812 92.4728 66.944 92.3528 67.112C92.2408 67.272 92.1568 67.456 92.1008 67.664C92.0448 67.864 92.0208 68.072 92.0288 68.288H90.6608C90.6768 67.88 90.7528 67.504 90.8888 67.16C91.0248 66.808 91.2088 66.504 91.4408 66.248C91.6808 65.992 91.9688 65.792 92.3048 65.648C92.6408 65.504 93.0208 65.432 93.4448 65.432C93.7728 65.432 94.0928 65.48 94.4048 65.576C94.7248 65.672 95.0088 65.812 95.2568 65.996C95.5128 66.18 95.7168 66.416 95.8688 66.704C96.0208 66.984 96.0968 67.308 96.0968 67.676C96.0968 68.1 96.0008 68.472 95.8088 68.792C95.6168 69.104 95.3168 69.332 94.9088 69.476V69.5C95.3888 69.596 95.7608 69.836 96.0248 70.22C96.2968 70.596 96.4328 71.056 96.4328 71.6C96.4328 72 96.3528 72.36 96.1928 72.68C96.0328 72.992 95.8168 73.26 95.5448 73.484C95.2728 73.7 94.9568 73.868 94.5968 73.988C94.2368 74.108 93.8568 74.168 93.4568 74.168C92.9688 74.168 92.5408 74.1 92.1728 73.964C91.8128 73.82 91.5088 73.62 91.2608 73.364C91.0208 73.108 90.8368 72.8 90.7088 72.44C90.5808 72.08 90.5128 71.68 90.5048 71.24H91.8728C91.8568 71.752 91.9808 72.18 92.2448 72.524C92.5168 72.86 92.9208 73.028 93.4568 73.028C93.9128 73.028 94.2928 72.9 94.5968 72.644C94.9088 72.38 95.0648 72.008 95.0648 71.528C95.0648 71.2 95.0008 70.94 94.8728 70.748C94.7448 70.556 94.5768 70.412 94.3688 70.316C94.1608 70.212 93.9248 70.148 93.6608 70.124C93.4048 70.1 93.1408 70.092 92.8688 70.1V69.08Z" fill="white"/>
</svg>
